<?xml version="1.0" encoding="UTF-8"?>
<map version="1.10" tiledversion="1.12.2" orientation="orthogonal" renderorder="right-down" width="30" height="20" tilewidth="16" tileheight="16" infinite="0" nextlayerid="8" nextobjectid="18">
 <tileset firstgid="1" source="Dungeon.tsx"/>
 <tileset firstgid="369" source="Has_Dangeon.tsx"/>
 <layer id="4" name="Background" width="30" height="20" locked="1">
  <data encoding="csv">
756,757,757,757,757,757,757,757,757,757,757,757,757,757,757,757,757,757,757,757,757,757,757,757,757,757,757,757,757,758,
772,773,773,773,773,773,773,773,773,773,773,773,773,773,773,773,773,773,773,773,773,773,773,773,773,773,773,773,773,774,
772,773,773,773,773,773,773,773,773,773,773,773,773,773,773,773,773,773,773,773,773,773,773,773,773,773,773,773,773,774,
772,773,773,773,773,773,773,773,773,773,773,773,773,773,773,773,773,773,773,773,773,773,773,773,773,773,773,773,773,774,
772,773,773,773,773,773,773,773,773,773,773,773,773,773,773,773,773,773,773,773,773,773,773,773,773,773,773,773,773,774,
772,773,773,773,773,773,773,773,773,773,773,773,773,773,773,773,773,773,773,773,773,773,773,773,773,773,773,773,773,774,
772,773,773,773,773,773,773,773,773,773,773,773,773,773,773,773,773,773,773,773,773,773,773,773,773,773,773,773,773,774,
772,773,773,773,773,773,773,773,773,773,773,773,773,773,773,773,773,773,773,773,773,773,773,773,773,773,773,773,773,774,
772,773,773,773,773,773,773,773,773,773,773,773,773,773,773,773,773,773,773,773,773,773,773,773,773,773,773,773,773,774,
772,773,773,773,773,773,773,773,773,773,773,773,773,773,773,773,773,773,773,773,773,773,773,773,773,773,773,773,773,774,
772,773,773,773,773,773,773,773,773,773,773,773,773,773,773,773,773,773,773,773,773,773,773,773,773,773,773,773,773,774,
772,773,773,773,773,773,773,773,773,773,773,773,773,773,773,773,773,773,773,773,773,773,773,773,773,773,773,773,773,774,
772,773,773,773,773,773,773,773,773,773,773,773,773,773,773,773,773,773,773,773,773,773,773,773,773,773,773,773,773,774,
772,773,773,773,773,773,773,773,773,773,773,773,773,773,773,773,773,773,773,773,773,773,773,773,773,773,773,773,773,774,
772,773,773,773,773,773,773,773,773,773,773,773,773,773,773,773,773,773,773,773,773,773,773,773,773,773,773,773,773,774,
772,773,773,773,773,773,773,773,773,773,773,773,773,773,773,773,773,773,773,773,773,773,773,773,773,773,773,773,773,774,
772,773,773,773,773,773,773,773,773,773,773,773,773,773,773,773,773,773,773,773,773,773,773,773,773,773,773,773,773,774,
772,773,773,773,773,773,773,773,773,773,773,773,773,773,773,773,773,773,773,773,773,773,773,773,773,773,773,773,773,774,
772,773,773,773,773,773,773,773,773,773,773,773,773,773,773,773,773,773,773,773,773,773,773,773,773,773,773,773,773,774,
788,789,789,789,789,789,789,789,789,789,789,789,789,789,789,789,789,789,789,789,789,789,789,789,789,789,789,789,789,790
</data>
 </layer>
 <layer id="5" name="Floor" width="30" height="20" locked="1">
  <data encoding="csv">
0,0,0,0,0,0,0,0,0,0,0,0,0,0,0,0,0,0,0,0,0,0,0,0,0,0,0,0,0,0,
0,0,0,0,0,0,0,0,0,0,0,0,0,0,0,0,0,0,0,0,0,0,0,0,0,0,0,0,0,0,
0,0,0,0,0,0,0,0,0,0,0,0,0,0,0,0,0,651,652,652,652,652,652,652,652,652,652,652,653,0,
0,0,0,0,0,0,0,0,0,0,0,0,0,0,0,0,0,667,668,668,668,668,668,668,668,668,668,668,669,0,
0,0,0,0,0,0,0,0,0,0,0,0,0,0,0,0,0,672,668,668,668,668,668,668,668,668,668,668,669,0,
0,0,0,0,0,0,0,0,0,0,0,0,0,0,0,0,0,672,668,668,474,475,475,476,668,668,668,668,669,0,
0,0,0,0,0,0,0,0,0,0,0,0,0,0,0,0,0,672,668,668,490,668,668,492,668,668,668,668,669,0,
0,0,0,0,0,0,0,0,0,0,0,0,0,0,0,0,0,672,668,668,506,507,507,508,668,668,668,668,669,0,
0,0,0,0,651,652,652,652,652,652,653,0,0,0,0,0,0,672,668,668,668,668,668,668,668,668,668,668,669,0,
0,0,0,0,667,668,668,668,668,668,669,0,0,0,0,0,0,672,668,668,668,668,668,668,668,668,668,668,669,0,
0,0,0,0,667,668,668,668,668,668,669,0,0,0,0,0,0,672,668,668,668,668,668,668,668,668,668,668,669,0,
0,0,0,0,667,668,668,668,668,668,686,687,687,687,687,687,687,688,668,668,668,668,668,668,668,668,668,668,669,0,
0,0,0,0,667,668,668,668,668,668,668,668,668,668,668,668,668,668,668,668,668,668,668,668,668,668,668,668,669,0,
0,0,0,0,667,668,668,668,668,668,654,655,655,655,655,655,655,656,668,668,668,668,668,668,668,668,668,668,669,0,
0,0,0,0,667,668,668,668,668,668,669,0,0,0,0,0,0,672,668,668,668,668,668,668,668,668,668,668,669,0,
0,0,0,0,667,668,668,668,668,668,669,0,0,0,0,0,0,672,668,668,668,668,668,668,668,668,668,668,669,0,
0,0,0,0,683,684,684,684,684,684,685,0,0,0,0,0,0,672,668,668,668,668,668,668,668,668,668,668,669,0,
0,0,0,0,0,0,0,0,0,0,0,0,0,0,0,0,0,667,668,668,668,668,668,668,668,668,668,668,669,0,
0,0,0,0,0,0,0,0,0,0,0,0,0,0,0,0,0,683,684,684,684,684,684,684,684,684,684,684,685,0,
0,0,0,0,0,0,0,0,0,0,0,0,0,0,0,0,0,0,0,0,0,0,0,0,0,0,0,0,0,0
</data>
 </layer>
 <layer id="6" name="Objects" width="30" height="20" locked="1">
  <data encoding="csv">
0,0,0,0,0,0,0,0,0,0,0,0,0,0,0,0,0,0,0,0,0,0,0,0,0,0,0,0,0,0,
0,0,0,0,0,0,0,0,0,0,0,0,0,0,0,0,0,0,0,0,0,0,0,0,0,0,0,0,0,0,
0,0,0,0,0,0,0,0,0,0,0,0,0,0,0,0,0,0,0,0,0,0,0,0,0,0,0,0,0,0,
0,0,0,0,0,0,0,0,0,0,0,0,0,0,0,0,0,0,0,0,0,0,0,0,0,0,0,0,0,0,
0,0,0,0,0,0,0,0,0,0,0,0,0,0,0,0,0,0,0,0,0,0,0,0,0,0,0,0,0,0,
0,0,0,0,0,0,0,0,0,0,0,0,0,0,0,0,0,0,0,0,0,0,0,0,0,0,0,0,0,0,
0,0,0,0,0,0,0,0,0,0,0,0,0,0,0,0,0,0,0,0,0,0,0,0,0,0,0,0,0,0,
0,0,0,0,0,0,0,0,0,0,0,0,0,0,0,0,0,0,0,0,0,0,0,0,0,0,0,0,0,0,
0,0,0,0,0,0,0,0,0,0,0,0,0,0,0,0,0,0,0,0,0,0,0,0,0,0,0,0,0,0,
0,0,0,0,0,0,0,0,0,0,0,0,0,0,0,0,0,0,0,0,0,0,0,0,0,0,0,0,0,0,
0,0,0,0,0,0,0,0,0,0,0,0,0,0,0,0,0,0,0,0,0,0,0,0,0,0,0,0,0,0,
0,0,0,0,0,0,0,0,0,0,0,0,0,0,0,0,0,0,0,0,109,0,0,0,0,0,0,0,0,0,
0,0,0,0,0,0,0,0,0,0,0,0,0,0,0,141,0,0,0,0,0,0,0,0,0,0,0,0,0,0,
0,0,0,0,0,0,0,0,0,0,0,0,0,0,0,0,0,0,0,0,0,0,0,0,0,0,0,0,0,0,
0,0,0,0,0,0,22,0,0,0,0,0,0,0,0,0,0,0,0,0,0,0,0,0,0,0,0,0,0,0,
0,0,0,0,0,0,0,0,0,0,0,0,0,0,0,0,0,0,0,0,0,0,0,0,0,0,0,0,0,0,
0,0,0,0,0,0,0,0,0,0,0,0,0,0,0,0,0,0,0,0,0,0,0,0,0,0,152,0,0,0,
0,0,0,0,0,0,0,0,0,0,0,0,0,0,0,0,0,0,0,0,0,0,0,0,0,0,0,0,0,0,
0,0,0,0,0,0,0,0,0,0,0,0,0,0,0,0,0,0,0,0,0,0,0,0,0,0,0,0,0,0,
0,0,0,0,0,0,0,0,0,0,0,0,0,0,0,0,0,0,0,0,0,0,0,0,0,0,0,0,0,0
</data>
 </layer>
 <objectgroup id="7" name="ObjectsData" locked="1">
  <object id="5" name="Start" type="SpawnPoint" x="103.5" y="233"/>
  <object id="6" name="Spikes" type="Damage" x="248" y="200"/>
  <object id="7" type="Obstacle" x="328" y="184.5"/>
  <object id="9" type="Obstacle" x="330" y="89.5" width="45" height="33"/>
  <object id="10" name="Finish" type="EndPoint" x="423.5" y="263.5"/>
  <object id="16" name="Ground" type="Ground" x="76.6667" y="140.667">
   <polygon points="0,0 84.6667,0 85.3333,40.6667 210,41.3333 210,-94.6667 371.333,-94.6667 371.333,145.333 210,143.833 208.833,70.8333 84.5,72 83.3333,113.333 2.16667,113.333"/>
  </object>
 </objectgroup>
</map>
